X: 106105
T: MARQUIS OF HUNTLY
Q:"Strathspey."
R: Strathspey.
%R:strathspey
Z: 2017 by John Chambers <jc:trillian.mit.edu>
B: Kerr's Merrie Melodies v.1 p.6 s.1 #5
M: C
L: 1/16
K: D
|: A2 |\
dd3 f3ud vg3veuf3ud | BB3 e3ud cA3 A3uc |\
dd3 f3ud vg3veuf3ud | vB3ue dcBA d4-d2 :|
|: uB2 |\
A3D (FED2) A3Bd3f | g3ef3d e3d(B2d2) |\
A3D (FED2) A3B d3b | af3 e3f d4 d2 :|

%%sep 1 1 500
%%sep 1 1 500

